!!!OTL: "Die Muellerin" EI ALLERLIEBSTES SCHATZERL
!!!ARE: Europa, Mitteleuropa, Deutschland, Boehmen
!!!SCT: Z1224
!!!YEM: Copyright 1995, estate of Helmut Schaffrath.
**kern
*ICvox
*Ivox
*M3/8
*k[f#]
*G:
{8d
=1
8g
8g
16g
16a
=2
8b
8b
8b
=3
8a
8b
8cc
=4
8b}
{8b
8b
=5
8a
8b
8cc
=6
8b
8b
8b
=7
8a
8a
8a
=8
8a
8g}
{8g
=9
8g
8f#
8f#
=10
8g
8b
8b}
=11
{8b
8a
8a
=12
8a
8g
8g
=13
8g
8f#
8f#
=14
4g}
==
!!!AGN: Liebes - Lied
!!!ONB: ESAC (Essen Associative Code) Database: ZUCCAL
!!!AMT: simple triple
!!!AIN: vox
!!!EED: Helmut Schaffrath
!!!EEV: 1.0
*-
